site/themes/s2b_hugo_theme/static/img/cal/icons/website.svg

<svg xmlns="http://www.w3.org/2000/svg" width="80" height="80" viewBox="0 0 80 80">
  <g fill="none" fill-rule="evenodd">
    <path fill="#000000" d="M7,7 L73,7 C75.209139,7 77,8.790861 77,11 L77,69 C77,71.209139 75.209139,73 73,73 L7,73 C4.790861,73 3,71.209139 3,69 L3,11 C3,8.790861 4.790861,7 7,7 Z M7,23 L7,65 C7,67.209139 8.790861,69 11,69 L69,69 C71.209139,69 73,67.209139 73,65 L73,23 L7,23 Z M25,11 C23.8954305,11 23,11.8954305 23,13 L23,18 C23,19.1045695 23.8954305,20 25,20 L71,20 C72.1045695,20 73,19.1045695 73,18 L73,13 C73,11.8954305 72.1045695,11 71,11 L25,11 Z M12.2238013,12.4964083 C12.5768531,12.181052 12.6074115,11.6392002 12.2920553,11.2861483 C11.976699,10.9330965 11.4348472,10.9025381 11.0817953,11.2178943 L7.367905,14.5352495 C6.91398115,14.9407075 6.87469184,15.6373741 7.28014985,16.091298 C7.32237905,16.1368239 7.32237905,16.1368239 7.367905,16.1790531 L11.0817953,19.4964083 C11.4348472,19.8117645 11.976699,19.7812062 12.2920553,19.4281543 C12.6074115,19.0751024 12.5768531,18.5332506 12.2238013,18.2178943 L9.02110353,15.3571513 L12.2238013,12.4964083 Z M18.1190876,15.5 L14.9163899,18.360743 C14.563338,18.6760993 14.5327797,19.2179511 14.8481359,19.571003 C15.1634921,19.9240549 15.705344,19.9546132 16.0583959,19.639257 L19.7722862,16.3219018 C19.8178121,16.2796726 19.8178121,16.2796726 19.8600413,16.2341467 C20.2654993,15.7802228 20.22621,15.0835562 19.7722862,14.6780982 L16.0583959,11.360743 C15.705344,11.0453868 15.1634921,11.0759451 14.8481359,11.428997 C14.5327797,11.7820489 14.563338,12.3239007 14.9163899,12.639257 L18.1190876,15.5 Z"/>
    <path fill="#000000" d="M51.7822909,46.8791097 L51.7822909,59.5423892 C51.7822909,61.088582 50.5288539,62.3420189 48.9826611,62.3420189 L47.5828463,62.3420189 C46.0366535,62.3420189 44.7832165,61.088582 44.7832165,59.5423892 L44.7832165,46.8791097 L41.1994377,48.3186676 C40.4820538,48.6068314 39.6668963,48.2588799 39.3787324,47.541496 C39.2297375,47.1705732 39.2464247,46.7536474 39.4245875,46.395819 L47.0296704,31.1214997 C47.3742464,30.4294409 48.214605,30.1477505 48.9066638,30.4923265 C49.1792356,30.62804 49.4001235,30.848928 49.535837,31.1214997 L57.1409199,46.395819 C57.4854959,47.0878778 57.2038055,47.9282364 56.5117467,48.2728125 C56.1539183,48.4509752 55.7369925,48.4676624 55.3660697,48.3186676 L51.7822909,46.8791097 Z" transform="rotate(-27 48.283 46.342)"/>
  </g>
</svg>

<svg xmlns="http://www.w3.org/2000/svg" width="80" height="80"><g fill="#000" fill-rule="evenodd"><path d="M7 7h66a4 4 0 0 1 4 4v58a4 4 0 0 1-4 4H7a4 4 0 0 1-4-4V11a4 4 0 0 1 4-4Zm0 16v42a4 4 0 0 0 4 4h58a4 4 0 0 0 4-4V23H7Zm18-12a2 2 0 0 0-2 2v5a2 2 0 0 0 2 2h46a2 2 0 0 0 2-2v-5a2 2 0 0 0-2-2H25Zm-12.776 1.496a.857.857 0 0 0-1.142-1.278l-3.714 3.317a1.102 1.102 0 0 0-.088 1.556c.042.046.042.046.088.088l3.714 3.317a.857.857 0 0 0 1.142-1.278l-3.203-2.86 3.203-2.862Zm5.895 3.004-3.203 2.86a.857.857 0 0 0 1.142 1.28l3.714-3.318c.046-.042.046-.042.088-.088a1.102 1.102 0 0 0-.088-1.556l-3.714-3.317a.857.857 0 0 0-1.142 1.278L18.12 15.5Z"/><path d="m51.645 45.232 5.749 11.283a2.8 2.8 0 0 1-1.224 3.765l-1.247.636a2.8 2.8 0 0 1-3.765-1.223l-5.75-11.284-2.54 2.91a1.4 1.4 0 0 1-2.453-.907l-.159-17.063a1.4 1.4 0 0 1 2.233-1.137L56.2 42.369a1.4 1.4 0 0 1-.708 2.519l-3.846.344Z"/></g></svg>
